X:1
T:Old Woman Tossed Up
M:6/8
L:1/8
O:Duns Tew
P:A(AB)4A
K:G
P:A
|:D|G2G GBd|efg dBG|AGA BAB|E2F G2:|
P:B
|:c|d2d Bcd|efg dBG|dcd Bcd|gfe d3 |
d2c Bcd|efg dBG|AGA BAB|E2F G2:|
